X: 32693
T: Policeman's Request, The
R: reel
M: 4/4
K: Gdorian
|:DGGF GABA|Gggf gfdc|F3A cFAc|dfcA GAFA|
DGGF GABA|Gggf gfdc|F3A cFAc|dfcA AGGF:|
|:(3def ga babg|agfe fefd|cAfA gAfA|(3ABc fa gfdc|
dfga babg|agfe fefd|c2Ac FAcf|dcBA BGG2:|

